X:1
T:RVW2/1/127 A Brisk Young Sailor
T:RVW2/1/127 A Brisk Young Sailor
T:Mr. W. Colcombe, Weobley, Herefordshire, July 1909 [1 of 5]
T:Transcribed by Simon Furey and Lewis Jones
C:Transcribed by Simon Furey and Lewis Jones
L:1/8
Q:1/4=110
M:6/8
K:Eb
V:1 treble 
V:1
"^(Editorial suggestion)" (G2 F) | E2 C G2 F |"^(a)" E2 D C2 B |"^(b)" GAB c2 B | %4
 C2 B !fermata!G2 F |"^(c)" GAB c2 B | G2 E !fermata!FEF | G2 A B2 D | E2 D C2 z | z2 z || (G2 F) | %11
 E2 C G2 F |"^(a) var." E2 D C2 G |"^(b) var." GAB c2 C | C2 B !fermata!G2 F |"^(c) var." GAB dcB | %16
 G2 E !fermata!FEF | G2 A B2 D | E2 D C2 z | z2 z |] %20

